X: 22011
T: Kitty's Rambles
R: jig
M: 6/8
K: Dmajor
A|FED cAG|Add efg|fed cAF|GBG AFD|
FED cAG|Add efg|fed cAG|Add d2:|:A|
dfa dfa|dfa afd|ceg ceg|ceg gfe|
fdf gfg|agf efg|fed cAG|Add d2:|

